X:64
T:Soun Pas D'Oici
R:Bourre
M:3/8
L:1/8
N:La Bourre 4th edition 1929, page 67
Z:Steve Mansfield www.lesession.co.uk May 2012
K:G
!f! d d e | d c/ d/ c/ B/ | A/ B/ c c |
d d e | d c/ d/ c/ B/ | A3 :| D/ D/ G A |
c A/ B/ G/ A/ | B A2 | D/ D/ G A | c2 A/ B/ A | G3 |]

